X: 1
T:The Mantle So Green
B:Joyce, P. W.; "Old Irish Folk Music and Songs"
R:song
O:Irish
W:As I went a-walking one morning in June
W:To view the green fields and the meadows in bloom
W:I espied a young damsel, she appeared like a queen,
W:With her costly fine robes and her mantle so green.
L:1/8
M:3/4
K:G
GA|\
B2G2A2|GE D2 GA|B2G2 GA|G3 z de|g2=f2 ed|
e2G2c2|d3 z de|g2=f2ed|e2G2c2|d2d2ef||
Hg4 dc|B2G2A2|GED2 GA|B2G2GA|G3 z||
